X:18258
T:Varvalsen - Valse/Walzer/Waltz
C:Anders Stake
Z:abc transcription Simon Wascher
N:please mail errors to simon.wascher@chello.at
M:3/4
L:1/4
K:Gm
G/=B/|cc/d/c/=B/|=B/G/G/F/G/A/|BB/c/B/A/|
F2C/E/|GGG/F/|F/A/AG/B/|AAG/F/|
G2G/=B/|cc/d/c/=B/|=B/G/G/F/G/A/|BB/c/B/A/|
F2C/E/|GGG/E/|E/C/CC/E/|DDC/=B,/|C2:|
|:G/F/|EE/F/E/D/|C>DE/F/|GBA/F/|A/G/GG/F/|
EE/G/ F/A/|A/G/GG/=B/|dd/=B/G/=B/|c2:|"Coda"c|G/F/EE/C/|D/=B,/C2||
